X:1
T:Title
%%score ( 1 2 ) 3
L:1/8
Q:1/4=101
M:6/8
K:G
V:1 treble nm="Grand Piano, Soprano"
V:2 treble 
V:3 bass nm="Choir Pad, Will You Be Washed"
V:1
 [DB]2 [B,G] [DB]2 [B,G] | [DB]2 [CA] [CA]3 | [CA][CA][CA] [CA][B,G][CF] | [B,G]2 [CA] [DB]3 | %4
w: By~Edwin~Othello~Excell * * *||||
 [DB]2 [B,G] [DB]2 [B,G] | [DB]2 [CA] [CA]3 | [CA][CA][CA] [CA][B,G][CF] | [B,G]6 | %8
w: ||||
 [GB][FA][GB] [Ac][^GB][Ac] | [Bd]3 [GB]3 | [Ac][^GB][Ac] [Bd]2 [Ac] | [Ac]3 [GB]3 | c3 .c3 | %13
w: |||||
 B3 z3 | [Cc][Cc][Cc] [Cc][B,G][CF] | [B,G]2 [CA] [DB]3 | c3 .c3 | B3 z3 | %18
w: |||||
 [DB][CA][B,G] [CA][CE][CF] | [B,G]6- | [B,G]3 z3 |] %21
w: |||
V:2
 x6 | x6 | x6 | x6 | x6 | x6 | x6 | x6 | x6 | x6 | x6 | x6 | FED FE[Dc] | DDD [B,G]3 | x6 | x6 | %16
 FED FE[Dc] | DDD [B,G]3 | x6 | x6 | x6 |] %21
V:3
 G,2 G, G,2 G, | [D,G,]2 [D,F,] [D,F,]3 | [D,F,][D,F,][D,F,] [D,F,][D,G,][D,A,] | G,6 | %4
 G,2 G, G,2 G, | [D,G,]2 [D,F,] [D,F,]3 | [D,F,][D,F,][D,F,] [D,F,][D,G,][D,A,] | G,6 | G,3 D,3 | %9
 G,3 G,3 | D,3 D,3 | G,3 G,3 | [D,A,][D,G,][D,F,] [D,A,][D,G,][D,F,] | %13
 [G,,G,][G,,G,][G,,G,] [G,,G,]3 | [D,F,][D,F,][D,F,] [D,F,][D,G,][D,A,] | G,6 | %16
 [D,A,][D,G,][D,F,] [D,A,][D,G,][D,F,] | [G,,G,][G,,G,][G,,G,] [G,,G,]3 | %18
 [D,G,][D,F,][D,G,] [D,F,][D,G,][D,A,] | G,6- | G,3 z3 |] %21

